dist/images/icons/phone.svg

<svg width="16" height="16" viewBox="0 0 16 16" fill="none" xmlns="http://www.w3.org/2000/svg">
<path d="M13.0944 16L12.3888 15.9904L12.1856 15.952C12.0256 15.9216 11.856 15.8912 11.6944 15.8512C10.768 15.6209 9.84317 15.1954 8.78238 14.5156C7.48158 13.6806 6.19998 12.6137 4.74879 11.1565C3.60777 10.0439 2.57834 8.82236 1.6752 7.5094C0.908798 6.36889 0.449599 5.42994 0.183999 4.44459C0.1296 4.24624 0.0927997 4.04949 0.0575998 3.85914C0.0415999 3.77756 0.0271999 3.69918 0.0112 3.61601L0 3.51523V2.94578L0.0383999 2.853C0.319999 2.17158 0.799998 1.69011 1.2704 1.25662C1.6128 0.9367 1.97439 0.645576 2.31359 0.375245C2.5166 0.208982 2.75619 0.0932821 3.01265 0.0376643C3.26912 -0.0179535 3.53512 -0.0118994 3.78879 0.0553283C4.11902 0.133745 4.40586 0.337351 4.58879 0.623181L5.02719 1.28381C5.48478 1.98123 5.95678 2.70104 6.43678 3.39686C6.6195 3.64911 6.7289 3.94695 6.7529 4.25747C6.7769 4.56799 6.71457 4.87909 6.57278 5.15641C6.48798 5.34356 6.39038 5.51631 6.29598 5.68427L6.17598 5.90022C6.08638 6.06017 5.99838 6.22013 5.90558 6.38009L6.20638 6.74C6.47678 7.05991 6.75838 7.40383 7.04638 7.71415C7.83666 8.58261 8.69658 9.38507 9.61757 10.1135C9.95677 9.91677 10.312 9.71843 10.7008 9.50728C11.0898 9.27081 11.5539 9.19024 12 9.28174C12.1582 9.3179 12.3088 9.38181 12.4448 9.47049C13.4357 10.1221 14.424 10.7763 15.4096 11.4332C15.9248 11.7771 16.1312 12.4777 15.9152 13.1399C15.8664 13.2982 15.793 13.4477 15.6976 13.583C15.1842 14.3102 14.5719 14.9622 13.8784 15.5201C13.7272 15.6338 13.5666 15.7344 13.3984 15.8208C13.3376 15.8544 13.2784 15.8864 13.2192 15.92L13.0944 16ZM12.536 14.9747H12.8208L12.9072 14.9283C13.0256 14.8682 13.139 14.7986 13.2464 14.7203C13.8649 14.2171 14.4104 13.6303 14.8672 12.9768C14.8983 12.9272 14.922 12.8733 14.9376 12.8168C14.9755 12.7282 14.9864 12.6303 14.9687 12.5355C14.9511 12.4407 14.9057 12.3532 14.8384 12.2842C13.8538 11.6283 12.8677 10.9757 11.88 10.3263C11.846 10.3047 11.8087 10.289 11.7696 10.2799C11.5665 10.2451 11.3579 10.2885 11.1856 10.4015C10.7552 10.6334 10.3696 10.8509 10.0064 11.0653C9.87248 11.1524 9.71424 11.1944 9.55477 11.1852C9.39529 11.176 9.24294 11.116 9.11997 11.0141C8.10555 10.2282 7.16122 9.35581 6.29758 8.40677C5.98878 8.07565 5.69918 7.72694 5.41918 7.38943C5.27038 7.21507 5.11999 7.04232 4.97919 6.86956C4.87617 6.75617 4.81406 6.61158 4.80275 6.45882C4.79144 6.30605 4.83158 6.1539 4.91679 6.02658C5.04319 5.81864 5.15999 5.60749 5.27678 5.39794L5.40158 5.1756C5.48958 5.01564 5.57118 4.87488 5.63678 4.72932C5.70452 4.61382 5.73628 4.48077 5.72802 4.34714C5.71975 4.21351 5.67183 4.08538 5.59038 3.97911C5.11039 3.2737 4.63039 2.54748 4.16799 1.84686L3.74079 1.19103C3.71967 1.15639 3.69153 1.12654 3.65819 1.1034C3.62485 1.08026 3.58704 1.06434 3.54719 1.05667C3.44639 1.02618 3.33962 1.02103 3.23635 1.04168C3.13308 1.06233 3.03651 1.10814 2.95519 1.17504C2.63519 1.43577 2.28479 1.7157 1.96639 2.01002C1.5888 2.35713 1.2336 2.70744 1.0256 3.15213V3.46245C1.04 3.53123 1.0528 3.60001 1.0656 3.66879C1.0992 3.84795 1.1312 4.0159 1.1744 4.17586C1.408 5.04124 1.82559 5.89222 2.52639 6.93515C3.39307 8.19394 4.38069 9.36507 5.47518 10.4318C6.87998 11.8411 8.10078 12.8568 9.33757 13.6518C10.2976 14.2708 11.1296 14.6531 11.9424 14.8563C12.0832 14.8915 12.2272 14.9171 12.3712 14.9427L12.536 14.9747Z" fill="#989898"/>
</svg>

<svg width="16" height="16" fill="none" xmlns="http://www.w3.org/2000/svg"><path d="M13.094 16l-.705-.01-.203-.038c-.16-.03-.33-.06-.492-.1-.926-.231-1.85-.657-2.912-1.336-1.3-.835-2.582-1.902-4.033-3.36A24.439 24.439 0 011.675 7.51C.91 6.37.45 5.43.184 4.445a7.003 7.003 0 01-.126-.586L.01 3.616l-.01-.1v-.57l.038-.093C.32 2.172.8 1.69 1.27 1.257c.343-.32.704-.611 1.044-.882a1.658 1.658 0 011.475-.32c.33.079.617.282.8.568l.438.66c.458.698.93 1.418 1.41 2.114a1.689 1.689 0 01.136 1.76c-.085.187-.183.36-.277.527l-.12.216c-.09.16-.178.32-.27.48l.3.36c.27.32.552.664.84.974.79.869 1.65 1.671 2.572 2.4a41.96 41.96 0 011.083-.607A1.803 1.803 0 0112 9.282c.158.036.309.1.445.188.99.652 1.979 1.306 2.965 1.963.515.344.721 1.045.505 1.707a1.573 1.573 0 01-.217.443 9.57 9.57 0 01-1.82 1.937 3.331 3.331 0 01-.48.3l-.179.1-.125.08zm-.558-1.025h.285l.086-.047c.119-.06.232-.13.34-.208a8.598 8.598 0 001.62-1.743.604.604 0 00.07-.16.488.488 0 00-.099-.533c-.984-.656-1.97-1.308-2.958-1.958a.357.357 0 00-.11-.046.814.814 0 00-.584.122c-.43.231-.816.449-1.18.663a.75.75 0 01-.886-.05 22.195 22.195 0 01-2.822-2.608c-.31-.331-.599-.68-.879-1.018-.149-.174-.299-.347-.44-.52a.686.686 0 01-.062-.842c.126-.208.243-.42.36-.63l.125-.221c.088-.16.17-.301.235-.447a.673.673 0 00-.047-.75c-.48-.705-.96-1.432-1.422-2.132l-.427-.656a.291.291 0 00-.194-.134.64.64 0 00-.592.118c-.32.26-.67.54-.989.835-.377.347-.732.697-.94 1.142v.31l.04.207c.033.179.065.347.108.507.234.865.652 1.716 1.352 2.76a23.461 23.461 0 002.95 3.496c1.404 1.41 2.625 2.425 3.862 3.22.96.619 1.792 1.001 2.604 1.204.141.036.285.061.43.087l.164.032z" fill="#989898"/></svg>
